dist/icons/arrow.svg

<svg width="22" height="17" viewBox="0 0 22 17" fill="white"
	xmlns="http://www.w3.org/2000/svg">
	<path d="M1.41603 0.72265C1.26285 0.492886 0.952414 0.430799 0.72265 0.583975C0.492886 0.737151 0.430799 1.04759 0.583975 1.27735L1.41603 0.72265ZM11 16L10.584 16.2774C10.6767 16.4164 10.8328 16.5 11 16.5C11.1672 16.5 11.3233 16.4164 11.416 16.2774L11 16ZM21.416 1.27735C21.5692 1.04759 21.5071 0.737151 21.2774 0.583975C21.0476 0.430799 20.7372 0.492886 20.584 0.72265L21.416 1.27735ZM19.3145 3.5282L19.7306 3.80555L19.7306 3.80555L19.3145 3.5282ZM0.583975 1.27735L10.584 16.2774L11.416 15.7226L1.41603 0.72265L0.583975 1.27735ZM11.416 16.2774L19.7306 3.80555L18.8985 3.25085L10.584 15.7226L11.416 16.2774ZM19.7306 3.80555L21.416 1.27735L20.584 0.72265L18.8985 3.25085L19.7306 3.80555Z" fill="white"/>
</svg>

<svg width="22" height="17" viewBox="0 0 22 17" fill="#fff" xmlns="http://www.w3.org/2000/svg"><path d="M1.416.723a.5.5 0 00-.832.554l.832-.554zM11 16l-.416.277a.5.5 0 00.832 0L11 16zM21.416 1.277a.5.5 0 10-.832-.554l.832.554zm-2.102 2.251l.417.278-.417-.278zM.584 1.278l10 15 .832-.555-10-15-.832.554zm10.832 15l8.315-12.472-.833-.555-8.314 12.472.832.554zm8.315-12.472l1.685-2.529-.832-.554-1.686 2.528.833.555z"/></svg>
